!!!COM: Robert Schumann
!!!CNT: Deutscher
!!!TXO: Deutsche 
!!!OTL: Wenn ich in deine Augen seh'
!!!OPR: Dichterliebe
!!!OPS: Opus 48
!!!ONM: No. 4
!!!LYR: Heine
!!!ENC: Brian Bice
!!!YOR: Sa2mtliche Lieder, vol. 1, C.F. Peters
!!!ODT: 1840/
!!NB: Vocal melody and text only encoded.
**kern	**silbe
*clefG2	*
*k[f#]	*
*M3/4	*
=1	=1
8r	.
{8b	{Wenn
8b	ich
8b	in
8.b	dei-
16b	-ne
=2	=2
8.dd	Au-
16b	-gen
4b}	seh',}
8r	.
{8g	{so
=3	=3
8.g	schwin-
16g	-det
8g	all
8g	mein
8cc	Leid
8cc	und
=4	=4
4a}	Weh;}
4r	.
8r	.
{8cc	{doch
=5	=5
8.cc	wenn
16cc	ich
8cc	ku2s-
8cc	-se
(8ee	dei-
16dd)	|
16cc	-nen
=6	=6
4.ffn}	Mund,}
{8ffn	{so
8ee	werd'
8dd	ich
=7	=7
8.cc	ganz
16dd	und
4.ee	gar
8dd	ge-
=8	=8
4cc}	-sund.}
4r	.
{4a	{Wenn
=9	=9
8.b	ich
16b	mich
8.b	lehn'
16f#	an
8g	dei-
8a	-ne
=10	=10
4g}	Brust,}
4r	.
{4cc	{kommt's
=11	=11
8.b	u2-
16f#	-ber
8f#	mich
8f#	wie
(16f#	Him-
8g)	|
16a	-mels-
=12	=12
4g}	-lust;}
8r	.
{8g	{doch
8g	wenn
8g	du
=13	=13
2g#	sprichst:
8r	.
8g#	ich
=14	=14
8.b	lie-
16a	-be
8a}	dich!}
{8cc	{so
8b	muss
8a	ich
=15	=15
8g	wei-
8a	-nen
4.b	bit-
8a	-ter-
=16	=16
4g}	-lich.}
4r	.
4r	.
*-	*-
